src/assets/images/works/stentor/StentorLogo.svg

<svg width="75" height="75" viewBox="0 0 75 75" fill="none" xmlns="http://www.w3.org/2000/svg">
<path d="M73.6975 37.0988C73.6975 57.3119 57.3114 73.6975 37.0991 73.6975M73.6975 37.0988C73.6975 16.8856 57.3114 0.5 37.0991 0.5M73.6975 37.0988H49.2981M37.0991 73.6975C16.8855 73.6975 0.5 57.3119 0.5 37.0988M37.0991 73.6975L24.8994 37.0988M37.0991 73.6975L49.2981 37.0988M37.0991 73.6975V0.5M0.5 37.0988C0.5 16.8856 16.8855 0.5 37.0991 0.5M0.5 37.0988H24.8994M37.0991 0.5V37.0988M37.0991 0.5L24.8994 37.0988M37.0991 0.5L49.2981 37.0988M71.6126 49.2986H45.252M32.5748 61.4977H9.81919M64.4185 61.4977H41.6477M28.8092 49.2986H2.58366M18.7992 5.40297L24.9284 16.0196M5.40359 18.7994L16.0214 24.9293M55.3983 5.40297L49.2343 16.0795M68.7939 18.7994L58.1761 24.9293M41.3073 13.1252C52.7417 15.1187 61.4346 25.0939 61.4346 37.0988L41.3073 13.1252ZM12.7629 37.0988C12.7629 25.0932 21.4552 15.1187 32.8903 13.1246L12.7629 37.0988Z" stroke="white" stroke-linecap="round" stroke-linejoin="round"/>
</svg>

<svg width="75" height="75" viewBox="0 0 75 75" fill="none" xmlns="http://www.w3.org/2000/svg"><path d="M73.698 37.099c0 20.213-16.387 36.599-36.599 36.599m36.599-36.6C73.698 16.887 57.31.5 37.099.5m36.599 36.599h-24.4M37.1 73.698c-20.214 0-36.6-16.386-36.6-36.6m36.6 36.6-12.2-36.6m12.2 36.6 12.198-36.6M37.1 73.699V.5M.5 37.099C.5 16.886 16.886.5 37.1.5M.5 37.099h24.4M37.1.5v36.599M37.1.5 24.9 37.099M37.1.5l12.198 36.599m22.315 12.2H45.252M32.575 61.498H9.819m54.6 0H41.647m-12.839-12.2H2.584M18.799 5.404l6.13 10.617M5.403 18.8l10.617 6.13M55.398 5.402 49.234 16.08m19.56 2.72-10.618 6.13M41.307 13.124C52.742 15.12 61.435 25.094 61.435 37.1zM12.763 37.1c0-12.006 8.692-21.98 20.127-23.974z" stroke="#fff" stroke-linecap="round" stroke-linejoin="round"/></svg>
